actions/symbolic/view-fullscreen-symbolic.svg

<?xml version="1.0" encoding="UTF-8" standalone="no"?>
<svg
   xmlns:dc="http://purl.org/dc/elements/1.1/"
   xmlns:cc="http://creativecommons.org/ns#"
   xmlns:rdf="http://www.w3.org/1999/02/22-rdf-syntax-ns#"
   xmlns:svg="http://www.w3.org/2000/svg"
   xmlns="http://www.w3.org/2000/svg"
   xmlns:sodipodi="http://sodipodi.sourceforge.net/DTD/sodipodi-0.dtd"
   xmlns:inkscape="http://www.inkscape.org/namespaces/inkscape"
   viewBox="0 0 16 16"
   id="svg2"
   version="1.1"
   inkscape:version="0.91 r13725"
   sodipodi:docname="view-fullscreen-symbolic.svg">
  <metadata
     id="metadata10">
    <rdf:RDF>
      <cc:Work
         rdf:about="">
        <dc:format>image/svg+xml</dc:format>
        <dc:type
           rdf:resource="http://purl.org/dc/dcmitype/StillImage" />
      </cc:Work>
    </rdf:RDF>
  </metadata>
  <sodipodi:namedview
     pagecolor="#ffffff"
     bordercolor="#666666"
     borderopacity="1"
     objecttolerance="10"
     gridtolerance="10"
     guidetolerance="10"
     inkscape:pageopacity="0"
     inkscape:pageshadow="2"
     inkscape:window-width="640"
     inkscape:window-height="480"
     id="namedview8"
     showgrid="false"
     inkscape:zoom="41.1875"
     inkscape:cx="3.6783005"
     inkscape:cy="8"
     inkscape:current-layer="svg2" />
  <defs
     id="defs3051">
    <style
       type="text/css"
       id="current-color-scheme">
      .ColorScheme-Text {
        color:#bebebe;
      }
      </style>
  </defs>
  <path
     style="color:#bebebe;fill:currentColor;fill-opacity:1;stroke:none"
     class="ColorScheme-Text"
     d="M 2.8571429,2.8572859 C 2,2.8572859 2,3.7144287 2,3.7144287 l 0,3.4285715 1.7142857,0 0,-2.5714286 2.5714286,0 0,-1.7142857 -3.4285714,0 z m 6.8571428,0 0,1.7142857 2.5714283,0 0,2.5714286 1.714286,0 0,-3.4285715 C 14,2.8572859 13.142857,2.8572859 13.142857,2.8572859 l -3.4285713,0 z M 2,8.8572859 2,12.285857 C 2,13.143 2.8571429,13.143 2.8571429,13.143 l 3.4285714,0 0,-1.714286 -2.5714286,0 0,-2.5714281 -1.7142857,0 z m 10.285714,0 0,2.5714281 -2.5714283,0 0,1.714286 3.4285713,0 c 0,0 0.857143,0 0.857143,-0.857143 l 0,-3.4285711 -1.714286,0 z"
     id="path6"
     inkscape:connector-curvature="0" />
</svg>

<svg xmlns="http://www.w3.org/2000/svg" viewBox="0 0 16 16">
  <path fill="#bebebe" d="M2.857 2.857C2 2.857 2 3.714 2 3.714v3.429h1.714V4.572h2.572V2.857zm6.857 0v1.715h2.572v2.571H14V3.714c0-.857-.857-.857-.857-.857zM2 8.857v3.429c0 .857.857.857.857.857h3.429v-1.714H3.714V8.857zm10.286 0v2.572H9.714v1.714h3.429s.857 0 .857-.857V8.857z"/>
</svg>
